packages/icons/src/lib/svgs/arrow-circle-left.svg

<svg
        aria-hidden="true"
        data-testid="test-icon"
        fill="none"
        
        viewBox="0 0 24 24"
        
        xmlns="http://www.w3.org/2000/svg"
        
    >
        <title>Arrow circle left</title>
        <path
            fillRule="evenodd"
            clipRule="evenodd"
            d="M12 4.63636C7.93318 4.63636 4.63636 7.93318 4.63636 12C4.63636 16.0668 7.93318 19.3636 12 19.3636C16.0668 19.3636 19.3636 16.0668 19.3636 12C19.3636 7.93318 16.0668 4.63636 12 4.63636ZM3 12C3 7.02944 7.02944 3 12 3C16.9706 3 21 7.02944 21 12C21 16.9706 16.9706 21 12 21C7.02944 21 3 16.9706 3 12ZM12.5785 8.14873C12.8981 8.46825 12.8981 8.98629 12.5785 9.30581L10.7025 11.1818H15.2727C15.7246 11.1818 16.0909 11.5481 16.0909 12C16.0909 12.4519 15.7246 12.8182 15.2727 12.8182H10.7025L12.5785 14.6942C12.8981 15.0137 12.8981 15.5317 12.5785 15.8513C12.259 16.1708 11.741 16.1708 11.4215 15.8513L8.14873 12.5785C7.82921 12.259 7.82921 11.741 8.14873 11.4215L11.4215 8.14873C11.741 7.82921 12.259 7.82921 12.5785 8.14873Z"
            fill="currentColor"
        />
    </svg>

<svg aria-hidden="true" data-testid="test-icon" fill="currentColor" viewBox="0 0 24 24" xmlns="http://www.w3.org/2000/svg"><path d="M12 4.636a7.364 7.364 0 100 14.728 7.364 7.364 0 000-14.728zM3 12a9 9 0 1118 0 9 9 0 01-18 0zm9.579-3.851c.32.32.32.837 0 1.157l-1.877 1.876h4.57a.818.818 0 110 1.636h-4.57l1.877 1.876a.818.818 0 11-1.158 1.157L8.15 12.578a.818.818 0 010-1.156l3.273-3.273a.818.818 0 011.156 0z"/></svg>
